theme/chrome/browser/symbolic-icons/tabview-0.svg

<?xml version="1.0" encoding="UTF-8" standalone="no"?>
<svg xmlns:inkscape="http://www.inkscape.org/namespaces/inkscape" xmlns:rdf="http://www.w3.org/1999/02/22-rdf-syntax-ns#" xmlns="http://www.w3.org/2000/svg" inkscape:version="0.48.3.1 r9886" height="16px" width="16px" version="1.1" xmlns:cc="http://creativecommons.org/ns#" xmlns:dc="http://purl.org/dc/elements/1.1/" sodipodi:docname="tabview-0.svg" xmlns:sodipodi="http://sodipodi.sourceforge.net/DTD/sodipodi-0.dtd">
<sodipodi:namedview bordercolor="#666666" inkscape:pageshadow="2" inkscape:window-y="27" pagecolor="#ffffff" inkscape:zoom="22.197802" inkscape:grid-bbox="true" inkscape:window-maximized="1" inkscape:window-x="0" showgrid="true" borderopacity="1.0" inkscape:current-layer="layer1" inkscape:cx="4.01316" inkscape:cy="11.26607" inkscape:window-height="712" inkscape:pageopacity="0.0" inkscape:window-width="1366" inkscape:document-units="px">
<inkscape:grid type="xygrid"/>
</sodipodi:namedview>
<metadata>
<rdf:RDF>
<cc:Work rdf:about="">
<dc:format>image/svg+xml</dc:format>
<dc:type rdf:resource="http://purl.org/dc/dcmitype/StillImage"/>
<dc:title/>
</cc:Work>
</rdf:RDF>
</metadata>
<g inkscape:label="Layer 1" inkscape:groupmode="layer">
<path fill="#2e3436" d="m2 1c-0.554 0-1 0.446-1 1v4c0 0.554 0.446 1 1 1h6c0.554 0 1-0.446 1-1v-4c0-0.554-0.446-1-1-1h-6zm10 0c-0.554 0-1 0.446-1 1v4c0 0.554 0.446 1 1 1h2c0.554 0 1-0.446 1-1v-4c0-0.554-0.446-1-1-1h-2zm-10 8c-0.554 0-1 0.446-1 1v3c0 0.554 0.446 1 1 1h3c0.554 0 1-0.446 1-1v-3c0-0.554-0.446-1-1-1h-3zm7 0c-0.554 0-1 0.446-1 1v3c0 0.554 0.446 1 1 1h5c0.554 0 1-0.446 1-1v-3c0-0.554-0.446-1-1-1h-5z" inkscape:connector-curvature="0"/>
</g>
</svg>

<?xml version="1.0" encoding="UTF-8" standalone="no"?>
<!-- Created with Inkscape (http://www.inkscape.org/) -->

<svg
   xmlns:dc="http://purl.org/dc/elements/1.1/"
   xmlns:cc="http://creativecommons.org/ns#"
   xmlns:rdf="http://www.w3.org/1999/02/22-rdf-syntax-ns#"
   xmlns:svg="http://www.w3.org/2000/svg"
   xmlns="http://www.w3.org/2000/svg"
   xmlns:sodipodi="http://sodipodi.sourceforge.net/DTD/sodipodi-0.dtd"
   xmlns:inkscape="http://www.inkscape.org/namespaces/inkscape"
   width="16px"
   height="16px"
   id="svg3763"
   version="1.1"
   inkscape:version="0.48.3.1 r9886"
   sodipodi:docname="tabview-0.svg">
  <defs
     id="defs3765" />
  <sodipodi:namedview
     id="base"
     pagecolor="#ffffff"
     bordercolor="#666666"
     borderopacity="1.0"
     inkscape:pageopacity="0.0"
     inkscape:pageshadow="2"
     inkscape:zoom="22.197802"
     inkscape:cx="4.01316"
     inkscape:cy="11.26607"
     inkscape:current-layer="layer1"
     showgrid="true"
     inkscape:grid-bbox="true"
     inkscape:document-units="px"
     inkscape:window-width="1366"
     inkscape:window-height="712"
     inkscape:window-x="0"
     inkscape:window-y="27"
     inkscape:window-maximized="1">
    <inkscape:grid
       type="xygrid"
       id="grid3780" />
  </sodipodi:namedview>
  <metadata
     id="metadata3768">
    <rdf:RDF>
      <cc:Work
         rdf:about="">
        <dc:format>image/svg+xml</dc:format>
        <dc:type
           rdf:resource="http://purl.org/dc/dcmitype/StillImage" />
        <dc:title />
      </cc:Work>
    </rdf:RDF>
  </metadata>
  <g
     id="layer1"
     inkscape:label="Layer 1"
     inkscape:groupmode="layer">
    <path
       inkscape:connector-curvature="0"
       id="path6125"
       d="M 2,1 C 1.446,1 1,1.446 1,2 L 1,6 C 1,6.554 1.446,7 2,7 L 8,7 C 8.554,7 9,6.554 9,6 L 9,2 C 9,1.446 8.554,1 8,1 L 2,1 z m 10,0 c -0.554,0 -1,0.446 -1,1 l 0,4 c 0,0.554 0.446,1 1,1 l 2,0 c 0.554,0 1,-0.446 1,-1 L 15,2 C 15,1.446 14.554,1 14,1 L 12,1 z M 2,9 C 1.446,9 1,9.446 1,10 l 0,3 c 0,0.554 0.446,1 1,1 l 3,0 c 0.554,0 1,-0.446 1,-1 L 6,10 C 6,9.446 5.554,9 5,9 L 2,9 z M 9,9 C 8.446,9 8,9.446 8,10 l 0,3 c 0,0.554 0.446,1 1,1 l 5,0 c 0.554,0 1,-0.446 1,-1 l 0,-3 C 15,9.446 14.554,9 14,9 L 9,9 z"
       style="fill:#2e3436;fill-opacity:1;stroke:none" />
  </g>
</svg>
